dist/img/icons/telegramm-small.svg

<svg width="21" height="18" viewBox="0 0 21 18" fill="none" xmlns="http://www.w3.org/2000/svg">
<path d="M0.977816 7.43107L19.6014 0.0898489C20.4658 -0.229406 21.2207 0.305429 20.9406 1.64169L20.9422 1.64005L17.7712 16.9133C17.5362 17.9961 16.9069 18.2594 16.0264 17.7493L11.1974 14.1107L8.86829 16.4048C8.61075 16.6681 8.39345 16.8902 7.89446 16.8902L8.23731 11.8661L17.1869 3.60001C17.5765 3.24949 17.1 3.05201 16.5865 3.40089L5.52667 10.5199L0.758904 8.99937C-0.276097 8.66366 -0.298632 7.94122 0.977816 7.43107Z" fill="white"/>
</svg>

<svg width="21" height="18" fill="none" xmlns="http://www.w3.org/2000/svg"><path d="M.978 7.431L19.6.09c.865-.32 1.62.215 1.34 1.552l.001-.002-3.17 15.273c-.236 1.083-.865 1.346-1.746.836l-4.829-3.638-2.329 2.294c-.257.263-.475.485-.974.485l.343-5.024 8.95-8.266c.39-.35-.087-.548-.6-.2l-11.06 7.12L.759 9C-.276 8.663-.3 7.94.978 7.43z" fill="#fff"/></svg>
